Newaita-dark/apps/48/libreoffice-main.svg

<svg height="48" viewBox="0 0 48 48" width="48" xmlns="http://www.w3.org/2000/svg" xmlns:xlink="http://www.w3.org/1999/xlink"><linearGradient id="a" gradientTransform="matrix(.111618 0 0 .093759 -3.945504 20.158178)" gradientUnits="userSpaceOnUse" x1="254" x2="254" y1="233.5" y2="254.666672"><stop offset="0" stop-opacity=".27451"/><stop offset="1" stop-opacity="0"/></linearGradient><linearGradient id="b"><stop offset="0" stop-opacity=".313726"/><stop offset=".222222" stop-opacity=".27451"/><stop offset="1" stop-opacity="0"/></linearGradient><radialGradient id="c" cx="450.908936" cy="189.579361" gradientTransform="matrix(.00000026 -.117199 -.210958 -.00000015 75.715273 95.392999)" gradientUnits="userSpaceOnUse" r="21.166656" xlink:href="#b"/><radialGradient id="d" cx="450.908936" cy="189.579361" gradientTransform="matrix(-.00000026 .117199 .210958 .00000015 -28.085722 -11.291218)" gradientUnits="userSpaceOnUse" r="21.166656" xlink:href="#b"/><radialGradient id="e" cx="450.908936" cy="189.579361" gradientTransform="matrix(-.00000026 -.117199 .210958 -.00000015 -28.085722 95.392999)" gradientUnits="userSpaceOnUse" r="21.166656" xlink:href="#b"/><radialGradient id="f" cx="450.908936" cy="189.579361" gradientTransform="matrix(.00000026 .117199 -.210958 .00000015 75.71527 -11.291219)" gradientUnits="userSpaceOnUse" r="21.166656" xlink:href="#b"/><linearGradient id="g"><stop offset="0" stop-color="#424242"/><stop offset="1" stop-color="#616161"/></linearGradient><linearGradient id="h" gradientUnits="userSpaceOnUse" x1="23.814816" x2="23.814816" xlink:href="#g" y1="42.05096580616" y2="4.34417266504"/><linearGradient id="i" gradientUnits="userSpaceOnUse" x1="23.814816" x2="23.814816" y1="40.06639780616" y2="6.32874066504"><stop offset="0" stop-color="#e0e0e0"/><stop offset="1" stop-color="#eee"/></linearGradient><linearGradient id="j" gradientUnits="userSpaceOnUse" x1="23.81478512495" x2="23.81478512495" xlink:href="#g" y1="42.0508931251" y2="4.34414953143"/><path d="m11.410156 42.050781h24.808594v1.984375h-24.808594zm0 0" fill="url(#a)"/><path d="m36.21875 42.050781h3.96875v-1.984375h-3.96875zm0 0" fill="url(#c)"/><path d="m11.410156 42.050781h-3.96875v1.984375h3.96875zm0 0" fill="url(#d)"/><path d="m11.410156 42.050781h-3.96875v-1.984375h3.96875zm0 0" fill="url(#e)"/><path d="m36.21875 42.050781h3.96875v1.984375h-3.96875zm0 0" fill="url(#f)"/><path d="m9.921875 4.34375c-1.097656 0-1.984375.886719-1.984375 1.984375v33.738281c0 1.097656.886719 1.984375 1.984375 1.984375h27.785156c1.097657 0 1.984375-.886719 1.984375-1.984375v-22.582031l-13.140625-13.140625zm20.839844 0 8.929687 8.929688v-6.945313c0-1.097656-.886718-1.984375-1.984375-1.984375zm0 0" fill="url(#h)"/><path d="m10.914062 6.328125c-.546874 0-.992187.441406-.992187.992187v31.753907c0 .550781.445313.992187.992187.992187h25.800782c.550781 0 .992187-.441406.992187-.992187v-20.839844l-11.90625-11.90625zm0 0" fill="url(#i)"/><path d="m17.859375 15.257812c-.546875 0-.992187.445313-.992187.992188v13.894531c0 .546875.445312.992188.992187.992188h11.910156c.546875 0 .992188-.445313.992188-.992188v-10.074219l-5.214844-4.8125zm9.347656 0 3.554688 3.28125v-2.289062c0-.546875-.445313-.992188-.992188-.992188zm0 0" fill="url(#j)"/><path d="m17.859375 15.257812c-.546875 0-.992187.445313-.992187.992188v.496094c0-.546875.445312-.992188.992187-.992188h7.6875l5.214844 4.8125v-.496094l-5.214844-4.8125zm9.347656 0 .539063.496094h2.023437c.546875 0 .992188.445313.992188.992188v-.496094c0-.546875-.445313-.992188-.992188-.992188zm0 0" fill="#fff" fill-opacity=".392157"/><path d="m27.207031 16.003906 3.554688 3.28125v-.746094l-2.746094-2.535156zm-10.339843 14.140625v.742188c0 .550781.445312.992187.992187.992187h11.910156c.546875 0 .992188-.441406.992188-.992187v-.742188c0 .546875-.445313.992188-.992188.992188h-11.910156c-.546875 0-.992187-.445313-.992187-.992188zm0 0" fill-opacity=".235294"/><path d="m719.931288 615.059407c-22.04514 0-39.996183 17.951043-39.996183 39.996183v560.104022c0 22.045141 17.951043 39.996183 39.996183 39.996183h480.111657c22.04514 0 39.996183-17.951042 39.996183-39.996183v-406.102972l-210.216157-193.997233zm376.814429 0 143.293411 132.270841v-92.274658c0-22.04514-17.951043-39.996183-39.996183-39.996183zm0 0" fill="none" stroke="#212121" stroke-linecap="round" stroke-linejoin="round" stroke-width="11.338583" transform="scale(.0248071)"/><path d="m9.921875 4.34375c-1.097656 0-1.984375.886719-1.984375 1.984375v.496094c0-1.097657.886719-1.984375 1.984375-1.984375h16.628906l13.140625 13.140625v-.496094l-13.140625-13.140625zm20.839844 0 .496093.496094h6.449219c1.097657 0 1.984375.886718 1.984375 1.984375v-.496094c0-1.097656-.886718-1.984375-1.984375-1.984375zm0 0" fill="#fff" fill-opacity=".392157"/><path d="m10.914062 6.328125c-.546874 0-.992187.441406-.992187.992187v.746094c0-.550781.445313-.992187.992187-.992187h14.886719l11.90625 11.90625v-.746094l-11.90625-11.90625zm0 0" fill-opacity=".235294"/><path d="m9.921875 39.109375v.46875c0 .550781.445313.992187.992187.992187h25.800782c.550781 0 .992187-.441406.992187-.992187v-.46875c0 .550781-.441406.992187-.992187.992187h-25.800782c-.546874 0-.992187-.441406-.992187-.992187zm0 0" fill="#fff" fill-opacity=".392157"/><path d="m439.958009 255.093763c-22.04514 0-39.996182 17.793578-39.996182 39.996183v1280.03531c0 22.202606 17.951042 39.996183 39.996182 39.996183h1040.058215c22.202605 0 39.996182-17.793577 39.996182-39.996183v-840.077301l-479.954192-479.954192zm0 0" fill="none" stroke="#212121" stroke-linecap="round" stroke-linejoin="round" stroke-width="11.338583" transform="scale(.0248071)"/><path d="m30.761719 4.34375 8.929687 8.929688v-.484376l-8.445312-8.445312zm-22.824219 35.238281v.484375c0 1.097656.886719 1.984375 1.984375 1.984375h27.785156c1.097657 0 1.984375-.886719 1.984375-1.984375v-.484375c0 1.097657-.886718 1.984375-1.984375 1.984375h-27.785156c-1.097656 0-1.984375-.886718-1.984375-1.984375zm0 0" fill-opacity=".235294"/><path d="m399.961827 175.101398c-44.247746 0-79.992366 35.74462-79.992366 79.992365v1360.027676c0 44.247745 35.74462 79.992365 79.992366 79.992365h1120.050579c44.247746 0 79.992366-35.74462 79.992366-79.992365v-910.306819l-529.713223-529.713222zm840.077301 0 359.965644 359.965644v-279.973279c0-44.247745-35.74462-79.992365-79.992366-79.992365zm0 0" fill="none" stroke="#212121" stroke-linecap="round" stroke-linejoin="round" stroke-width="11.338583" transform="scale(.0248071)"/></svg>

<?xml version="1.0" encoding="UTF-8"?>
<svg xmlns="http://www.w3.org/2000/svg" xmlns:xlink="http://www.w3.org/1999/xlink" width="48px" height="48px" viewBox="0 0 48 48" version="1.1">
<defs>
<linearGradient id="linear0" gradientUnits="userSpaceOnUse" x1="254" y1="233.5" x2="254" y2="254.666672" gradientTransform="matrix(0.111618,0,0,0.093759,-3.945504,20.158178)">
<stop offset="0" style="stop-color:rgb(0%,0%,0%);stop-opacity:0.27451;"/>
<stop offset="1" style="stop-color:rgb(0%,0%,0%);stop-opacity:0;"/>
</linearGradient>
<radialGradient id="radial0" gradientUnits="userSpaceOnUse" cx="450.908936" cy="189.579361" fx="450.908936" fy="189.579361" r="21.166656" gradientTransform="matrix(0.000000261256,-0.117199,-0.210958,-0.000000152308,75.715273,95.392999)">
<stop offset="0" style="stop-color:rgb(0%,0%,0%);stop-opacity:0.313726;"/>
<stop offset="0.222222" style="stop-color:rgb(0%,0%,0%);stop-opacity:0.27451;"/>
<stop offset="1" style="stop-color:rgb(0%,0%,0%);stop-opacity:0;"/>
</radialGradient>
<radialGradient id="radial1" gradientUnits="userSpaceOnUse" cx="450.908936" cy="189.579361" fx="450.908936" fy="189.579361" r="21.166656" gradientTransform="matrix(-0.000000261256,0.117199,0.210958,0.000000152308,-28.085722,-11.291218)">
<stop offset="0" style="stop-color:rgb(0%,0%,0%);stop-opacity:0.313726;"/>
<stop offset="0.222222" style="stop-color:rgb(0%,0%,0%);stop-opacity:0.27451;"/>
<stop offset="1" style="stop-color:rgb(0%,0%,0%);stop-opacity:0;"/>
</radialGradient>
<radialGradient id="radial2" gradientUnits="userSpaceOnUse" cx="450.908936" cy="189.579361" fx="450.908936" fy="189.579361" r="21.166656" gradientTransform="matrix(-0.000000261256,-0.117199,0.210958,-0.000000152308,-28.085722,95.392999)">
<stop offset="0" style="stop-color:rgb(0%,0%,0%);stop-opacity:0.313726;"/>
<stop offset="0.222222" style="stop-color:rgb(0%,0%,0%);stop-opacity:0.27451;"/>
<stop offset="1" style="stop-color:rgb(0%,0%,0%);stop-opacity:0;"/>
</radialGradient>
<radialGradient id="radial3" gradientUnits="userSpaceOnUse" cx="450.908936" cy="189.579361" fx="450.908936" fy="189.579361" r="21.166656" gradientTransform="matrix(0.000000261256,0.117199,-0.210958,0.000000152308,75.71527,-11.291219)">
<stop offset="0" style="stop-color:rgb(0%,0%,0%);stop-opacity:0.313726;"/>
<stop offset="0.222222" style="stop-color:rgb(0%,0%,0%);stop-opacity:0.27451;"/>
<stop offset="1" style="stop-color:rgb(0%,0%,0%);stop-opacity:0;"/>
</radialGradient>
<linearGradient id="linear1" gradientUnits="userSpaceOnUse" x1="254" y1="233.5" x2="254" y2="-168.666672" gradientTransform="matrix(0.093759,0,0,0.093759,0,20.158174)">
<stop offset="0" style="stop-color:rgb(87.843138%,87.843138%,87.843138%);stop-opacity:1;"/>
<stop offset="1" style="stop-color:rgb(93.333334%,93.333334%,93.333334%);stop-opacity:1;"/>
</linearGradient>
<linearGradient id="linear2" gradientUnits="userSpaceOnUse" x1="413.712219" y1="-474.701691" x2="413.712219" y2="-72.535034" gradientTransform="matrix(0.093759,0,0,0.093759,0,20.158174)">
<stop offset="0" style="stop-color:rgb(38.039216%,38.039216%,38.039216%);stop-opacity:1;"/>
<stop offset="1" style="stop-color:rgb(45.882353%,45.882353%,45.882353%);stop-opacity:1;"/>
</linearGradient>
<linearGradient id="linear3" gradientUnits="userSpaceOnUse" x1="248.708328" y1="101.208344" x2="248.708328" y2="-300.958313" gradientTransform="matrix(0.093759,0,0,0.093759,0.496141,32.5617)">
<stop offset="0" style="stop-color:rgb(38.039216%,38.039216%,38.039216%);stop-opacity:1;"/>
<stop offset="1" style="stop-color:rgb(45.882353%,45.882353%,45.882353%);stop-opacity:1;"/>
</linearGradient>
</defs>
<g id="surface1">
<path style=" stroke:none;fill-rule:nonzero;fill:url(#linear0);" d="M 11.410156 42.050781 L 36.21875 42.050781 L 36.21875 44.035156 L 11.410156 44.035156 Z M 11.410156 42.050781 "/>
<path style=" stroke:none;fill-rule:nonzero;fill:url(#radial0);" d="M 36.21875 42.050781 L 40.1875 42.050781 L 40.1875 40.066406 L 36.21875 40.066406 Z M 36.21875 42.050781 "/>
<path style=" stroke:none;fill-rule:nonzero;fill:url(#radial1);" d="M 11.410156 42.050781 L 7.441406 42.050781 L 7.441406 44.035156 L 11.410156 44.035156 Z M 11.410156 42.050781 "/>
<path style=" stroke:none;fill-rule:nonzero;fill:url(#radial2);" d="M 11.410156 42.050781 L 7.441406 42.050781 L 7.441406 40.066406 L 11.410156 40.066406 Z M 11.410156 42.050781 "/>
<path style=" stroke:none;fill-rule:nonzero;fill:url(#radial3);" d="M 36.21875 42.050781 L 40.1875 42.050781 L 40.1875 44.035156 L 36.21875 44.035156 Z M 36.21875 42.050781 "/>
<path style=" stroke:none;fill-rule:nonzero;fill:url(#linear1);" d="M 29.859375 4.34375 L 9.921875 4.34375 C 8.824219 4.34375 7.9375 5.230469 7.9375 6.328125 L 7.9375 40.066406 C 7.9375 41.164062 8.824219 42.050781 9.921875 42.050781 L 37.707031 42.050781 C 38.804688 42.050781 39.691406 41.164062 39.691406 40.066406 L 39.691406 13.355469 Z M 29.859375 4.34375 "/>
<path style=" stroke:none;fill-rule:nonzero;fill:url(#linear2);" d="M 29.859375 4.34375 L 39.691406 13.355469 L 39.691406 6.328125 C 39.691406 5.230469 38.804688 4.34375 37.707031 4.34375 Z M 29.859375 4.34375 "/>
<path style=" stroke:none;fill-rule:nonzero;fill:rgb(0%,0%,0%);fill-opacity:0.235294;" d="M 7.9375 39.570312 L 7.9375 40.066406 C 7.9375 41.164062 8.824219 42.050781 9.921875 42.050781 L 37.707031 42.050781 C 38.804688 42.050781 39.691406 41.164062 39.691406 40.066406 L 39.691406 39.570312 C 39.691406 40.667969 38.804688 41.554688 37.707031 41.554688 L 9.921875 41.554688 C 8.824219 41.554688 7.9375 40.667969 7.9375 39.570312 Z M 7.9375 39.570312 "/>
<path style=" stroke:none;fill-rule:nonzero;fill:rgb(100%,100%,100%);fill-opacity:1;" d="M 9.921875 4.34375 C 8.824219 4.34375 7.9375 5.230469 7.9375 6.328125 L 7.9375 7.320312 C 7.9375 6.222656 8.824219 5.335938 9.921875 5.335938 L 29.859375 5.335938 L 39.691406 14.351562 L 39.691406 13.355469 L 29.859375 4.34375 Z M 9.921875 4.34375 "/>
<path style=" stroke:none;fill-rule:nonzero;fill:rgb(100%,100%,100%);fill-opacity:0.392157;" d="M 29.859375 4.34375 L 30.941406 5.335938 L 37.707031 5.335938 C 38.804688 5.335938 39.691406 6.222656 39.691406 7.320312 L 39.691406 6.328125 C 39.691406 5.230469 38.804688 4.34375 37.707031 4.34375 Z M 29.859375 4.34375 "/>
<path style=" stroke:none;fill-rule:nonzero;fill:rgb(0%,0%,0%);fill-opacity:0.235294;" d="M 29.859375 4.34375 L 39.691406 13.355469 L 39.691406 12.53125 L 30.761719 4.34375 Z M 29.859375 4.34375 "/>
<path style="fill:none;stroke-width:11.338583;stroke-linecap:round;stroke-linejoin:round;stroke:rgb(12.941177%,12.941177%,12.941177%);stroke-opacity:1;stroke-miterlimit:4;" d="M 1203.664647 175.101398 L 399.961827 175.101398 C 355.714081 175.101398 319.969461 210.846018 319.969461 255.093763 L 319.969461 1615.121439 C 319.969461 1659.369184 355.714081 1695.113804 399.961827 1695.113804 L 1520.012406 1695.113804 C 1564.260152 1695.113804 1600.004772 1659.369184 1600.004772 1615.121439 L 1600.004772 538.373813 Z M 1203.664647 175.101398 " transform="matrix(0.0248071,0,0,0.0248071,0,0)"/>
<path style="fill:none;stroke-width:3;stroke-linecap:round;stroke-linejoin:round;stroke:rgb(12.941177%,12.941177%,12.941177%);stroke-opacity:1;stroke-miterlimit:4;" d="M 318.469588 -168.671091 L 423.334574 -72.555269 L 423.334574 -147.506445 C 423.334574 -159.213661 413.877143 -168.671091 402.169928 -168.671091 Z M 318.469588 -168.671091 " transform="matrix(0.093759,0,0,0.093759,0,20.158175)"/>
<path style=" stroke:none;fill-rule:nonzero;fill:url(#linear3);" d="M 17.859375 15.257812 C 17.3125 15.257812 16.867188 15.703125 16.867188 16.25 L 16.867188 30.144531 C 16.867188 30.691406 17.3125 31.136719 17.859375 31.136719 L 29.769531 31.136719 C 30.316406 31.136719 30.761719 30.691406 30.761719 30.144531 L 30.761719 20.070312 L 25.546875 15.257812 Z M 27.207031 15.257812 L 30.761719 18.539062 L 30.761719 16.25 C 30.761719 15.703125 30.316406 15.257812 29.769531 15.257812 Z M 27.207031 15.257812 "/>
<path style=" stroke:none;fill-rule:nonzero;fill:rgb(100%,100%,100%);fill-opacity:0.392157;" d="M 17.859375 15.257812 C 17.3125 15.257812 16.867188 15.703125 16.867188 16.25 L 16.867188 16.746094 C 16.867188 16.199219 17.3125 15.753906 17.859375 15.753906 L 25.546875 15.753906 L 30.761719 20.566406 L 30.761719 20.070312 L 25.546875 15.257812 Z M 27.207031 15.257812 L 27.746094 15.753906 L 29.769531 15.753906 C 30.316406 15.753906 30.761719 16.199219 30.761719 16.746094 L 30.761719 16.25 C 30.761719 15.703125 30.316406 15.257812 29.769531 15.257812 Z M 27.207031 15.257812 "/>
<path style=" stroke:none;fill-rule:nonzero;fill:rgb(0%,0%,0%);fill-opacity:0.235294;" d="M 27.207031 16.003906 L 30.761719 19.285156 L 30.761719 18.539062 L 28.015625 16.003906 Z M 16.867188 30.144531 L 16.867188 30.886719 C 16.867188 31.4375 17.3125 31.878906 17.859375 31.878906 L 29.769531 31.878906 C 30.316406 31.878906 30.761719 31.4375 30.761719 30.886719 L 30.761719 30.144531 C 30.761719 30.691406 30.316406 31.136719 29.769531 31.136719 L 17.859375 31.136719 C 17.3125 31.136719 16.867188 30.691406 16.867188 30.144531 Z M 16.867188 30.144531 "/>
<path style="fill:none;stroke-width:11.338583;stroke-linecap:round;stroke-linejoin:round;stroke:rgb(12.941177%,12.941177%,12.941177%);stroke-opacity:1;stroke-miterlimit:4;" d="M 719.931288 615.059407 C 697.886148 615.059407 679.935105 633.01045 679.935105 655.05559 L 679.935105 1215.159612 C 679.935105 1237.204753 697.886148 1255.155795 719.931288 1255.155795 L 1200.042945 1255.155795 C 1222.088085 1255.155795 1240.039128 1237.204753 1240.039128 1215.159612 L 1240.039128 809.05664 L 1029.822971 615.059407 Z M 1096.745717 615.059407 L 1240.039128 747.330248 L 1240.039128 655.05559 C 1240.039128 633.01045 1222.088085 615.059407 1200.042945 615.059407 Z M 1096.745717 615.059407 " transform="matrix(0.0248071,0,0,0.0248071,0,0)"/>
</g>
</svg>
